icons/svg/emergency/firestation3.svg

<?xml version="1.0" encoding="UTF-8" standalone="no"?>
<!-- Created with Inkscape (http://www.inkscape.org/) -->

<svg
   xmlns:dc="http://purl.org/dc/elements/1.1/"
   xmlns:cc="http://creativecommons.org/ns#"
   xmlns:rdf="http://www.w3.org/1999/02/22-rdf-syntax-ns#"
   xmlns:svg="http://www.w3.org/2000/svg"
   xmlns="http://www.w3.org/2000/svg"
   xmlns:xlink="http://www.w3.org/1999/xlink"
   xmlns:sodipodi="http://sodipodi.sourceforge.net/DTD/sodipodi-0.dtd"
   xmlns:inkscape="http://www.inkscape.org/namespaces/inkscape"
   version="1.0"
   width="580"
   height="580"
   id="svg2"
   sodipodi:version="0.32"
   inkscape:version="0.47 r22583"
   sodipodi:docname="amenity_firestation3.svg"
   inkscape:output_extension="org.inkscape.output.svg.inkscape">
  <metadata
     id="metadata1976">
    <rdf:RDF>
      <cc:Work
         rdf:about="">
        <dc:format>image/svg+xml</dc:format>
        <dc:type
           rdf:resource="http://purl.org/dc/dcmitype/StillImage" />
        <cc:license
           rdf:resource="http://web.resource.org/cc/PublicDomain" />
        <dc:language>en</dc:language>
      </cc:Work>
    </rdf:RDF>
  </metadata>
  <sodipodi:namedview
     inkscape:window-height="973"
     inkscape:window-width="1280"
     inkscape:pageshadow="2"
     inkscape:pageopacity="0.0"
     guidetolerance="10.0"
     gridtolerance="10.0"
     objecttolerance="10.0"
     borderopacity="1.0"
     bordercolor="#666666"
     pagecolor="#ffffff"
     id="base"
     inkscape:zoom="1.1952453"
     inkscape:cx="305.74659"
     inkscape:cy="290.00963"
     inkscape:window-x="0"
     inkscape:window-y="0"
     inkscape:current-layer="svg2"
     showgrid="false"
     inkscape:window-maximized="1" />
  <defs
     id="defs4">
    <inkscape:perspective
       sodipodi:type="inkscape:persp3d"
       inkscape:vp_x="0 : 290 : 1"
       inkscape:vp_y="0 : 1000 : 0"
       inkscape:vp_z="580 : 290 : 1"
       inkscape:persp3d-origin="290 : 193.33333 : 1"
       id="perspective3653" />
    <marker
       viewBox="0 0 10 10"
       refY="5"
       refX="10"
       orient="auto"
       markerWidth="4"
       markerUnits="strokeWidth"
       markerHeight="3"
       id="ArrowStart">
      <path
         id="path2111"
         d="M 10 0 L 0 5 L 10 10 z" />
    </marker>
    <marker
       viewBox="0 0 10 10"
       refY="5"
       refX="0"
       orient="auto"
       markerWidth="4"
       markerUnits="strokeWidth"
       markerHeight="3"
       id="ArrowEnd">
      <path
         id="path2108"
         d="M 0 0 L 10 5 L 0 10 z" />
    </marker>
    <inkscape:perspective
       id="perspective2512"
       inkscape:persp3d-origin="177.51199 : 145.02 : 1"
       inkscape:vp_z="355.02399 : 217.53 : 1"
       inkscape:vp_y="0 : 1000 : 0"
       inkscape:vp_x="0 : 217.53 : 1"
       sodipodi:type="inkscape:persp3d" />
    <inkscape:perspective
       id="perspective3305"
       inkscape:persp3d-origin="372.04724 : 350.78739 : 1"
       inkscape:vp_z="744.09448 : 526.18109 : 1"
       inkscape:vp_y="0 : 1000 : 0"
       inkscape:vp_x="0 : 526.18109 : 1"
       sodipodi:type="inkscape:persp3d" />
    <inkscape:perspective
       id="perspective3354"
       inkscape:persp3d-origin="372.04724 : 350.78739 : 1"
       inkscape:vp_z="744.09448 : 526.18109 : 1"
       inkscape:vp_y="0 : 1000 : 0"
       inkscape:vp_x="0 : 526.18109 : 1"
       sodipodi:type="inkscape:persp3d" />
    <inkscape:perspective
       id="perspective3569"
       inkscape:persp3d-origin="372.04724 : 350.78739 : 1"
       inkscape:vp_z="744.09448 : 526.18109 : 1"
       inkscape:vp_y="0 : 1000 : 0"
       inkscape:vp_x="0 : 526.18109 : 1"
       sodipodi:type="inkscape:persp3d" />
    <inkscape:perspective
       id="perspective3604"
       inkscape:persp3d-origin="372.04724 : 350.78739 : 1"
       inkscape:vp_z="744.09448 : 526.18109 : 1"
       inkscape:vp_y="0 : 1000 : 0"
       inkscape:vp_x="0 : 526.18109 : 1"
       sodipodi:type="inkscape:persp3d" />
    <inkscape:perspective
       id="perspective4346"
       inkscape:persp3d-origin="372.04724 : 350.78739 : 1"
       inkscape:vp_z="744.09448 : 526.18109 : 1"
       inkscape:vp_y="0 : 1000 : 0"
       inkscape:vp_x="0 : 526.18109 : 1"
       sodipodi:type="inkscape:persp3d" />
  </defs>
  <g
     id="g1327">
    <path
       d="M 66.275,1.768 C 24.94,1.768 1.704,23.139 1.704,66.804 L 1.704,516.927 C 1.704,557.771 22.6,579.156 63.896,579.156 L 515.92,579.156 C 557.227,579.156 578.149,558.842 578.149,516.927 L 578.149,66.804 C 578.149,24.203 557.227,1.768 514.628,1.768 C 514.624,1.768 66.133,1.625 66.275,1.768 z"
       style="fill:#111111;stroke:#eeeeee;stroke-width:3.40799999"
       id="path1329" />
  </g>
  <g
     id="g2117"
     transform="matrix(1.1975036,0,0,1.1975036,80.128205,34.575832)"
     style="fill:#000000">
    <g
       id="g2119"
       style="fill:#000000">
      <g
         id="g2121"
         style="fill:#000000">
        <path
           id="path2125"
           style="fill:#000000;stroke:none"
           d="" />
      </g>
      <g
         id="g2127"
         style="fill:#000000">
        <path
           id="path2131"
           style="fill:#000000;stroke:none"
           d="" />
      </g>
    </g>
  </g>
  <image
     sodipodi:absref="/home/brian/webroot/mapicons/svg/pastedpic_10102008_233747.png"
     xlink:href="pastedpic_10102008_233747.png"
     width="239"
     height="190"
     id="image3356"
     x="-1801.1931"
     y="573.99469" />
  <path
     style="fill:#ffffff;stroke:#ffffff;stroke-width:9.5004673;stroke-linecap:round;stroke-linejoin:round;stroke-miterlimit:4;stroke-opacity:1;stroke-dasharray:none"
     d="m 287.54752,24.82936 c -24.5642,0.06768 -44.92229,15.567008 -65.52354,26.987265 -23.6266,12.365832 -50.62737,17.687102 -77.22099,16.180484 -8.00914,0.305743 -20.08645,0.324417 -22.53392,9.886424 -2.15787,9.897214 7.83419,15.915256 12.76404,22.905207 11.45648,13.41133 23.07625,26.52693 35.15395,39.32286 1.82819,-2.55786 9.43787,-4.26659 4.7588,-7.46361 -13.46471,-16.05758 -28.7322,-30.82111 -40.62307,-48.084441 -1.04162,-7.231398 7.6892,-8.790534 13.09269,-8.177775 20.58788,-0.158094 42.23864,1.050276 60.8922,-9.1012 27.49688,-12.521769 52.84281,-33.892662 84.49479,-34.171994 30.38666,0.588659 55.36729,20.333943 81.25868,33.786037 18.35049,10.37796 38.78565,17.893659 60.09046,17.16022 6.97194,0.550013 15.773,-1.034926 20.84165,4.690856 2.87596,7.13959 -5.66769,10.852295 -9.18145,15.653647 -11.7667,11.78781 -23.58354,23.52236 -35.41137,35.23323 2.9898,1.25929 5.99773,7.36385 8.65624,4.72247 16.12086,-16.62216 33.67318,-31.88907 48.28719,-49.849689 2.29368,-6.32431 -0.55094,-15.255652 -8.28454,-15.638991 C 441.06622,74.794223 422.07122,76.909676 404.28451,71.322273 370.47919,62.297039 344.54784,34.736063 310.4674,26.610697 302.99921,25.016955 295.24308,24.686109 287.54752,24.82936 z M 86.939209,111.3133 c -7.480359,-0.10892 -9.42973,8.79164 -9.365986,14.63106 -1.74212,17.58642 -1.18225,35.93733 -8.565617,52.31922 -12.430588,34.66836 -41.044731,62.89874 -44.79943,100.6102 -2.552721,26.14426 10.564347,49.89374 22.505126,72.18771 13.453163,25.22346 25.051864,53.10611 22.323464,82.31766 -0.379358,8.12228 -0.29675,19.85888 8.372287,23.45428 7.600494,2.07507 12.74036,-5.647 18.644668,-8.877 15.058949,-11.14712 28.974229,-23.48771 42.841169,-36.0424 -2.82391,-2.3273 -4.80551,-10.40584 -8.45925,-4.86144 -15.04154,12.38722 -29.14242,26.10343 -45.069945,37.2521 -7.002255,1.01076 -8.498645,-7.66615 -7.659752,-12.82563 0.49503,-17.5436 0.175452,-35.66235 -8.045709,-51.51035 -13.134565,-30.46259 -35.800093,-58.28599 -37.259646,-92.68893 -0.07709,-31.58405 20.166541,-57.80352 34.647018,-84.1979 10.455182,-18.12728 18.315784,-38.22984 17.605553,-59.4373 0.619876,-6.21604 -1.35145,-15.1109 4.839301,-18.88218 7.453385,-2.05341 11.07661,6.79784 16.26955,10.33176 11.6531,11.40284 22.69484,23.27382 34.64702,34.40951 2.69949,-3.46275 8.27333,-6.92192 2.19535,-10.04834 -16.36459,-16.41676 -31.74328,-33.8695 -50.113335,-48.05296 -1.845609,-0.16378 -3.701492,-0.12879 -5.551836,-0.0891 z m 407.421611,11.3115 c -7.35395,3.57028 -11.69328,11.1389 -18.43645,15.64292 -11.53353,10.66344 -23.31673,21.05092 -34.64741,31.91879 2.70845,1.84416 4.59348,9.76923 7.77213,5.39132 15.1099,-13.23809 29.08548,-28.1614 45.4008,-40.00865 6.86617,-1.56278 8.89515,6.98407 7.89726,12.05372 -0.43005,18.62403 0.45963,37.86428 9.22682,54.71696 13.0417,31.06158 34.53943,60.16856 35.72227,94.9451 -0.83228,30.28543 -20.72727,55.03345 -34.82515,80.3977 -10.19431,17.1618 -17.7315,36.52991 -16.92271,56.85436 -0.69502,6.52265 1.09037,15.72452 -5.28463,19.77285 -7.27002,2.38507 -11.53184,-6.10985 -16.437,-9.71802 -10.90632,-10.40093 -21.81604,-20.79828 -32.72792,-31.19337 -1.24026,2.86873 -7.84194,5.8402 -3.35486,8.31291 17.02487,15.734 32.42127,33.41155 51.00564,47.02732 7.70962,1.2974 13.22536,-6.475 13.06314,-13.53817 2.43855,-16.4053 1.1859,-33.65916 7.77851,-49.28368 10.40368,-32.05008 35.33582,-57.40908 43.76153,-90.16537 5.32885,-23.21576 -0.24145,-47.67258 -11.34119,-68.37368 -14.68592,-30.88062 -33.06529,-62.6132 -31.41092,-98.09233 -0.41235,-8.64176 0.68502,-19.2053 -5.96748,-25.71064 -3.21457,-1.3148 -6.8931,-0.84761 -10.27238,-0.95004 z M 156.38169,440.5045 c -14.42676,16.34815 -32.17238,29.66881 -44.41469,47.79923 -2.41602,7.88733 5.31381,15.11765 12.9903,14.61794 16.48463,2.15517 33.7904,0.89995 49.44559,7.55971 30.51758,9.87269 55.22918,33.16025 86.13153,42.20025 26.66016,7.00514 55.22902,1.12873 78.64851,-12.65283 29.06686,-14.16175 59.6492,-29.8491 92.97915,-27.70364 8.02831,-0.40369 17.63905,0.23055 23.89998,-5.25801 2.97274,-5.84104 1.25082,-13.02853 -4.01377,-16.95623 -13.3288,-15.82981 -27.88544,-30.90815 -41.44003,-46.60783 -1.37399,2.31848 -9.79202,4.42475 -5.19557,6.56126 12.84137,14.87015 27.72134,28.63501 39.42695,44.68189 2.58939,6.57768 -5.79706,9.97262 -11.07399,9.11451 -22.49335,-1.60489 -45.15583,2.26282 -65.28602,12.6178 -28.67962,13.3844 -57.45313,32.64058 -90.55133,30.69839 -33.26122,-2.25785 -59.17506,-25.66237 -88.02777,-39.63476 -15.51146,-7.85626 -32.70407,-11.49812 -50.0259,-11.3115 -5.50746,-0.008 -15.09661,0.40621 -15.31951,-7.15504 1.11914,-6.84299 8.58545,-10.01724 12.24261,-15.41228 10.40026,-10.75101 20.75797,-21.53492 31.16265,-32.26819 -3.31886,-1.71288 -6.56929,-8.6647 -9.44451,-3.09113 -0.71139,0.73349 -1.42279,1.46698 -2.13418,2.20046 z"
     id="path3575" />
  <g
     id="g5215"
     transform="matrix(1.0478814,0,0,1.0478814,-14.016475,-23.016508)">
    <path
       sodipodi:nodetypes="cscccccccccccc"
       id="path4356"
       d="m 198.67153,429.13471 c -27.9052,-15.73923 -44.91267,-52.53932 -32.35461,-107.5395 8.80965,-38.58338 34.48036,-86.20137 14.80642,-125.85126 23.86554,16.49562 48.67818,55.72148 73.70237,100.02462 1.72552,-47.91091 -23.1357,-79.3021 -5.26444,-144.77247 12.26268,80.9952 61.45228,86.01536 86.42474,159.68842 10.62203,-34.63889 32.71786,-46.03994 21.93521,-132.05003 108.58157,148.29018 46.69562,200.96776 25.00613,254.00987 l 7.0193,-73.70234 c -34.05505,98.44168 -61.34018,116.60289 -85.98606,138.63059 13.7744,-46.21019 19.20596,-92.4204 -8.77412,-138.63059 -6.79301,75.87173 -25.9655,60.08286 -29.83187,121.08241 -38.33494,-28.93346 -46.20823,-58.61344 -53.08324,-107.04388 -5.21553,5.66709 -14.0221,29.35386 -13.59983,56.15416 z"
       style="fill:#ffffff;fill-opacity:1;fill-rule:evenodd;stroke:none" />
    <path
       sodipodi:nodetypes="ccc"
       id="path4358"
       d="M 278.07704,75.100248 C 249.68045,190.40668 301.5257,189.3936 330.28289,257.16259 350.4538,152.66532 290.11046,176.17723 278.07704,75.100248 z"
       style="fill:#ffffff;fill-opacity:1;fill-rule:evenodd;stroke:none" />
  </g>
  <path
     style="opacity:0.1;fill:#ffffff;fill-opacity:1;fill-rule:evenodd;stroke:none"
     d="m 83.620844,116.43162 -5.563986,44.51188 -15.102245,38.9479 -27.025072,50.07587 -10.333115,37.35818 17.486811,49.28102 24.640506,48.48616 10.333115,66.76782 56.434712,-43.71703 29.40963,31.7942 -48.48615,50.87073 8.7434,7.94855 32.58905,3.17941 30.2045,7.94856 51.66557,30.20448 36.56334,11.12798 34.97362,-4.76913 44.51188,-19.87138 38.9479,-15.10225 42.12732,-5.56398 18.28166,-11.12797 -45.30673,-46.89644 32.58905,-30.2045 48.48616,46.10159 8.74341,-14.30739 4.76913,-42.92217 21.46109,-41.33246 23.05079,-43.71703 5.56399,-30.99935 -14.30739,-39.74274 -23.84565,-44.51189 -9.53826,-45.30674 -3.97429,-34.97362 -27.81992,20.66623 -28.61478,25.43536 -28.61478,-30.99935 45.30674,-49.281008 -9.53826,-10.333115 -42.92218,-4.76913 -40.53761,-15.897101 -44.51188,-24.640506 -32.58906,-7.153696 -38.94789,8.743406 -37.35819,22.255941 -34.17877,10.333116 -54.05014,3.974275 0,9.53826 46.1016,52.460428 -33.38392,28.61479 -56.434706,-48.48616 z"
     id="path6053" />
</svg>

<svg width="580" height="580" viewBox="0 0 580 580" fill="none" xmlns="http://www.w3.org/2000/svg">
<g clip-path="url(#clip0)">
<path d="M66.2751 1.76802C24.9401 1.76802 1.7041 23.139 1.7041 66.804V516.927C1.7041 557.771 22.6001 579.156 63.8961 579.156H515.92C557.227 579.156 578.149 558.842 578.149 516.927V66.804C578.149 24.203 557.227 1.76802 514.628 1.76802C514.624 1.76802 66.1331 1.62502 66.2751 1.76802Z" fill="#111111" stroke="#EEEEEE" stroke-width="3.408"/>
<path d="M287.547 24.8293C262.983 24.897 242.625 40.3964 222.024 51.8166C198.397 64.1824 171.397 69.5037 144.803 67.9971C136.794 68.3028 124.716 68.3215 122.269 77.8835C120.111 87.7807 130.103 93.7988 135.033 100.789C146.49 114.2 158.109 127.316 170.187 140.112C172.015 137.554 179.625 135.845 174.946 132.648C161.481 116.59 146.214 101.827 134.323 84.5635C133.281 77.3321 142.012 75.773 147.415 76.3858C168.003 76.2277 189.654 77.436 208.308 67.2846C235.805 54.7628 261.15 33.3919 292.802 33.1126C323.189 33.7012 348.17 53.4465 374.061 66.8986C392.412 77.2766 412.847 84.7923 434.152 84.0588C441.123 84.6088 449.925 83.0239 454.993 88.7497C457.869 95.8893 449.325 99.602 445.812 104.403C434.045 116.191 422.228 127.926 410.4 139.637C413.39 140.896 416.398 147 419.057 144.359C435.177 127.737 452.73 112.47 467.344 94.5093C469.637 88.185 466.793 79.2537 459.059 78.8704C441.066 74.7942 422.071 76.9097 404.284 71.3223C370.479 62.297 344.548 34.7361 310.467 26.6107C302.999 25.0169 295.243 24.6861 287.547 24.8293ZM86.9392 111.313C79.4588 111.204 77.5094 120.105 77.5732 125.944C75.831 143.531 76.3909 161.882 69.0076 178.264C56.577 212.932 27.9628 241.162 24.2081 278.874C21.6554 305.018 34.7725 328.768 46.7133 351.061C60.1664 376.285 71.7651 404.168 69.0367 433.379C68.6574 441.501 68.74 453.238 77.409 456.833C85.0095 458.909 90.1494 451.186 96.0537 447.956C111.113 436.809 125.028 424.469 138.895 411.914C136.071 409.587 134.089 401.508 130.436 407.053C115.394 419.44 101.293 433.156 85.3656 444.305C78.3634 445.315 76.867 436.639 77.7059 431.479C78.2009 413.935 77.8813 395.817 69.6602 379.969C56.5256 349.506 33.8601 321.683 32.4005 287.28C32.3235 255.696 52.5671 229.476 67.0476 203.082C77.5027 184.955 85.3633 164.852 84.6531 143.645C85.273 137.429 83.3017 128.534 89.4924 124.762C96.9458 122.709 100.569 131.56 105.762 135.094C117.415 146.497 128.457 158.368 140.409 169.504C143.108 166.041 148.682 162.582 142.604 159.455C126.24 143.039 110.861 125.586 92.491 111.402C90.6454 111.239 88.7895 111.274 86.9392 111.313V111.313ZM494.361 122.625C487.007 126.195 482.667 133.764 475.924 138.268C464.391 148.931 452.608 159.319 441.277 170.186C443.985 172.031 445.87 179.956 449.049 175.578C464.159 162.34 478.135 147.416 494.45 135.569C501.316 134.006 503.345 142.553 502.347 147.623C501.917 166.247 502.807 185.487 511.574 202.34C524.616 233.401 546.113 262.508 547.296 297.285C546.464 327.57 526.569 352.318 512.471 377.683C502.277 394.844 494.74 414.213 495.548 434.537C494.853 441.06 496.639 450.262 490.264 454.31C482.994 456.695 478.732 448.2 473.827 444.592C462.92 434.191 452.011 423.794 441.099 413.398C439.858 416.267 433.257 419.239 437.744 421.711C454.769 437.445 470.165 455.123 488.75 468.739C496.459 470.036 501.975 462.264 501.813 455.201C504.251 438.795 502.999 421.541 509.591 405.917C519.995 373.867 544.927 348.508 553.353 315.751C558.682 292.536 553.111 268.079 542.012 247.378C527.326 216.497 508.946 184.765 510.601 149.285C510.188 140.644 511.286 130.08 504.633 123.575C501.419 122.26 497.74 122.727 494.361 122.625V122.625ZM156.382 440.504C141.955 456.853 124.209 470.173 111.967 488.304C109.551 496.191 117.281 503.421 124.957 502.922C141.442 505.077 158.748 503.822 174.403 510.481C204.92 520.354 229.632 543.642 260.534 552.682C287.195 559.687 315.763 553.81 339.183 540.029C368.25 525.867 398.832 510.18 432.162 512.325C440.19 511.921 449.801 512.556 456.062 507.067C459.035 501.226 457.313 494.039 452.048 490.111C438.719 474.281 424.163 459.203 410.608 443.503C409.234 445.822 400.816 447.928 405.413 450.064C418.254 464.935 433.134 478.699 444.84 494.746C447.429 501.324 439.043 504.719 433.766 503.861C411.272 502.256 388.61 506.124 368.48 516.479C339.8 529.863 311.026 549.119 277.928 547.177C244.667 544.919 218.753 521.515 189.9 507.542C174.389 499.686 157.196 496.044 139.875 496.231C134.367 496.223 124.778 496.637 124.555 489.076C125.674 482.233 133.141 479.058 136.798 473.663C147.198 462.912 157.556 452.128 167.96 441.395C164.641 439.682 161.391 432.73 158.516 438.304C157.804 439.038 157.093 439.771 156.382 440.504V440.504Z" fill="white" stroke="white" stroke-width="9.50047" stroke-linecap="round" stroke-linejoin="round"/>
<path fill-rule="evenodd" clip-rule="evenodd" d="M194.168 426.666C164.926 410.173 147.105 371.611 160.264 313.977C169.495 273.546 196.395 223.648 175.779 182.1C200.788 199.385 226.788 240.489 253.011 286.914C254.819 236.709 228.767 203.815 247.494 135.209C260.344 220.083 311.889 225.343 338.057 302.544C349.188 266.247 372.341 254.3 361.042 164.171C474.823 319.562 409.974 374.762 387.246 430.343L394.601 353.112C358.916 456.267 330.324 475.298 304.498 498.381C318.932 449.958 324.624 401.535 295.304 353.112C288.186 432.617 268.095 416.072 264.044 479.992C223.873 449.673 215.623 418.572 208.419 367.823C202.953 373.761 193.725 398.582 194.168 426.666V426.666Z" fill="white"/>
<path fill-rule="evenodd" clip-rule="evenodd" d="M277.375 55.6797C247.619 176.507 301.947 175.446 332.081 246.459C353.218 136.959 289.985 161.596 277.375 55.6797Z" fill="white"/>
<path opacity="0.1" fill-rule="evenodd" clip-rule="evenodd" d="M83.6208 116.432L78.0569 160.943L62.9546 199.891L35.9296 249.967L25.5964 287.325L43.0832 336.606L67.7237 385.093L78.0569 451.86L134.492 408.143L163.901 439.938L115.415 490.808L124.158 498.757L156.748 501.936L186.952 509.885L238.618 540.089L275.181 551.217L310.155 546.448L354.666 526.577L393.614 511.475L435.742 505.911L454.023 494.783L408.717 447.886L441.306 417.682L489.792 463.783L498.535 449.476L503.304 406.554L524.765 365.221L547.816 321.504L553.38 290.505L539.073 250.762L515.227 206.25L505.689 160.943L501.715 125.97L473.895 146.636L445.28 172.071L416.665 141.072L461.972 91.7911L452.434 81.458L409.511 76.6889L368.974 60.7918L324.462 36.1513L291.873 28.9976L252.925 37.741L215.567 59.9969L181.388 70.33L127.338 74.3043V83.8426L173.439 136.303L140.056 164.918L83.6208 116.432V116.432Z" fill="white"/>
</g>
<defs>
<clipPath id="clip0">
<path d="M0 0H580V580H0V0Z" fill="white"/>
</clipPath>
</defs>
</svg>
